!!!!SEGMENT: pl-gd--ee-1638--002-040_marenzio-luca--motettorum-pro-festis-totius-anni-in-festo-confess-non-pont-similabo-eum-viro-sapienti.krn
!!!cenid: 15xx:1043
!!!COM: Marenzio, Luca
!!!COM-rismID: pe30003955
!!!CDT: ~1553-1599/08/22
!!!CNT: Italian
!!!GTL: Motettorum pro festis totius anni
!!!OTL: In festo Confess. Non Pont./Similabo eum viro sapienti
!!!OMV: 040
!!!PDT: 1588
!!!AGN:
!!!YEC: Copyright 2022 Narodowy Instytut Fryderyka Chopina (https://polishscores.org)
!!!YEM: License CC-BY-4.0 (https://creativecommons.org/licenses/by/4.0)
!!!SMS-siglum: PL-GD
!!!SMS-shelfmark: Ee 1638
!!!SMS-variant:
!!!SMS-altvar:
!!!SMS-shelfwork: 002-040 G
!!!NIFC-rismSourceID: 1001202747
!!!NIFC-rismChildID: 990039238
!!!NIFC-islandoraID: pl-gd:57883
!!!URL-pdf-islandora: https://repozytorium.nifc.pl/islandora/object/pl-gd%3A57883/datastream/PDF/view
!!!URL-scan: https://polish.musicsources.pl/pl/lokalizacje/galeria/klocki-introligatorskie/655 @EN{Scan on Polish Music Sources Website} @PL{Skany w portalu Dziedzictwo Muzyki Polskiej w otwartym dostępie}
!!!IIIF: https://repozytorium.nifc.pl/islandora/object/pl-gd%3A57883/datastream/IIIF/view
!!!ONB-nifc: UWAGA: Cantus: s. 636 (lewa), Altus: s. 484 (lewa), Tenor: s. 332 (lewa), Bassus: s. 180 (lewa)
!!!AIN: 1 alto 1 bass 1 soprn 1 tenor
!!!key: C:mix
**kern	**text	**kern	**text	**kern	**text	**kern	**text
*part4	*part4	*part3	*part3	*part2	*part2	*part1	*part1
*staff4	*staff4	*staff3	*staff3	*staff2	*staff2	*staff1	*staff1
*ICvox	*	*ICvox	*	*ICvox	*	*ICvox	*
*Ibass	*	*Itenor	*	*Ialto	*	*Isoprn	*
*I"BASSVS	*	*I"TENOR	*	*I"ALTVS	*	*I"CANTVS	*
*mI"Basso	*	*mI"Tenore	*	*mI"Alto	*	*mI"Soprano	*
*I'B	*	*I'T	*	*I'A	*	*I'S	*
*clefF4	*	*clefC4	*	*clefC3	*	*clefC1	*
*	*	*mclefGv2	*	*mclefG2	*	*mclefG2	*
*k[b-]	*	*k[b-]	*	*k[b-]	*	*k[b-]	*
*C:mix	*	*C:mix	*	*C:mix	*	*C:mix	*
*M2/1	*	*M2/1	*	*M2/1	*	*M2/1	*
*met(C)	*	*met(C|)	*	*met(C|)	*	*met(C|)	*
*mmet(c|)	*	*mmet(c|)	*	*mmet(c|)	*	*mmet(c|)	*
=1-	=1-	=1-	=1-	=1-	=1-	=1-	=1-
*xywh-#180:1004,550,3465,833	*	*xywh-#332:1054,469,3419,891	*	*xywh-#484:1130,446,3495,940	*	*xywh-#636:1033,458,3447,892	*
!LO:TX:t=P:problem=przy kluczu BB- B-	!	!	!	!	!	!	!
!LO:TX:a:i:mod= :t=In festo Confeſſ. non Pont.	!	!LO:TX:a:i:mod= :t=In festo Confeſſ. non Pont.	!	!LO:TX:a:i:mod= :t=In festo Confeſſ. non Pont.	!	!LO:TX:a:i:mod= :t=In festo Confeſſ. non Pont.	!LO:SIC:s=Si-
00r	.	00r	.	1r	.	0g	SI-
!	!	!	!	!	!LO:SIC:s=Si-	!	!
.	.	.	.	0c	SI-	.	.
=2-	=2-	=2-	=2-	=2-	=2-	=2-	=2-
.	.	.	.	.	.	1e	-mi-
.	.	.	.	1A	-mi-	1.a	-la-
=3-	=3-	=3-	=3-	=3-	=3-	=3-	=3-
00r	.	00r	.	1.d	-la-	.	.
.	.	.	.	.	.	2f/	-bo
.	.	.	.	.	.	1a	e-
.	.	.	.	2A/	-bo	.	.
=4-	=4-	=4-	=4-	=4-	=4-	=4-	=4-
.	.	.	.	1c	e-	2g/	-um
.	.	.	.	.	.	1cc\	vi-
.	.	.	.	2F/	-um	.	.
.	.	.	.	2f\	vi-	2a\	-ro
=5-	=5-	=5-	=5-	=5-	=5-	=5-	=5-
00r	.	0r	.	2e\	-ro	1cc	ſa-
.	.	.	.	1f\	ſa-	.	.
.	.	.	.	.	.	2a\	-pi-
.	.	.	.	2d\	-pi-	2.b-\	-en-
=6-	=6-	=6-	=6-	=6-	=6-	=6-	=6-
!	!	!	!LO:SIC:s=Si-	!	!	!	!
.	.	0c	SI-	2e\	-en-	.	.
.	.	.	.	.	.	4a\	.
.	.	.	.	1f\	.	4a\	.
.	.	.	.	.	.	8g/	.
.	.	.	.	.	.	8f/	.
.	.	.	.	.	.	1g	.
.	.	.	.	4e\	.	.	.
.	.	.	.	4d\	.	.	.
=7-	=7-	=7-	=7-	=7-	=7-	=7-	=7-
00r	.	1A	-mi-	4e\	.	2cc\	-ti
.	.	.	.	4c/	.	.	.
*	*	*	*	*custos:f	*	*	*
*	*	*	*	*xywh-#484:1193,1089,3425,807	*	*	*
!	!	!	!	!LO:LB:g=original	!	!	!
.	.	.	.	2.f\	.	1a\	ſa-
.	.	1.d	-la-	.	.	.	.
.	.	.	.	4e\	.	.	.
.	.	.	.	4d\	.	2f/	-pi-
.	.	.	.	4c/	.	.	.
*	*	*	*	*	*	*custos:b	*
!	!	!	!	!	!	!LO:LB:g=original	!
=8-	=8-	=8-	=8-	=8-	=8-	=8-	=8-
*	*	*	*	*	*	*xywh-#636:1064,1102,3392,838	*
*	*	*	*	*	*	*lig	*
.	.	.	.	4B-/	.	1b-	-en-
.	.	.	.	4G/	.	.	.
.	.	2B-\	-bo	2.g\	.	.	.
*	*	*	*	*	*	*col	*
.	.	1d	e-	.	.	2.a	.
.	.	.	.	4f\	.	.	.
.	.	.	.	1f\	.	.	.
*	*	*	*	*	*	*Xlig	*
.	.	.	.	.	.	8g/	.
.	.	.	.	.	.	8f/	.
*	*	*	*	*	*	*Xcol	*
=9-	=9-	=9-	=9-	=9-	=9-	=9-	=9-
!	!LO:SIC:s=Si-	!	!	!	!	!	!
0C	SI-	1c	-um	.	.	1g	.
.	.	.	.	4e\	.	.	.
.	.	.	.	4d\	.	.	.
.	.	2r	.	1e	.	1g	ti
.	.	1c\	vi-	.	.	.	.
=10-	=10-	=10-	=10-	=10-	=10-	=10-	=10-
0AA	-mi-	.	.	0e	ti	2r	.
!	!	!	!	!	!	!	!LO:SIC:s=si-
.	.	2A/	-ro	.	.	1cc\	Si-
.	.	1c	ſa-	.	.	.	.
.	.	.	.	.	.	1a\	-mi-
=11-	=11-	=11-	=11-	=11-	=11-	=11-	=11-
0D	-la-	2A/	-pi-	0f	vi-	.	.
.	.	2.B-\	-en-	.	.	1dd\	-la-
.	.	.	.	.	.	.	.
.	.	4A/	.	.	.	.	.
.	.	4A/	.	.	.	2a\	-bo
.	.	8G/	.	.	.	.	.
.	.	8F/	.	.	.	.	.
*	*	*custos:G	*	*	*	*	*
!	!	!LO:LB:g=original	!	!	!	!	!
=12-	=12-	=12-	=12-	=12-	=12-	=12-	=12-
*	*	*xywh-#332:1023,1130,3457,799	*	*	*	*	*
0BB-	-bo	4G/	.	1d	-ro	2b-\	e-
.	.	4D/	.	.	.	.	.
.	.	2.F/	.	.	.	2f/	-um
.	.	.	.	2d\	ſa-	1b-	vi-
.	.	4E/	.	.	.	.	.
.	.	4D/	.	2f\	-pi-	.	.
.	.	4E/	.	.	.	.	.
=13-	=13-	=13-	=13-	=13-	=13-	=13-	=13-
0D	e-	4F/	.	1.f	-en-	2a\	-ro
.	.	4G/	.	.	.	.	.
.	.	1A\	.	.	.	2f/	ſa-
.	.	.	.	.	.	2a\	-pi-
.	.	4G/	.	4e\	.	2.b-\	-en-
.	.	4F/	.	4d\	.	.	.
=14-	=14-	=14-	=14-	=14-	=14-	=14-	=14-
0C	-um	0c	-ti	4e\	.	.	.
.	.	.	.	4c\	.	4a\	.
.	.	.	.	2.f\	.	4a\	.
.	.	.	.	.	.	8g/	.
.	.	.	.	.	.	8f/	.
*	*	*	*	*	*	*lig	*
.	.	.	.	.	.	1g	.
.	.	.	.	8e\	.	.	.
.	.	.	.	8d\	.	.	.
.	.	.	.	2e\	.	.	.
=15-	=15-	=15-	=15-	=15-	=15-	=15-	=15-
*	*	*	*	*	*	*col	*
0F	vi-	2.c\	.	2f\	-ti	2.a	.
*	*	*	*	*custos:c	*	*	*
*	*	*	*	*xywh-#484:1216,1638,3377,791	*	*	*
!	!	!	!	!LO:LB:g=original	!LO:SIC:s=si-	!	!
.	.	.	.	1c\	Si-	.	.
*	*	*	*	*	*	*Xlig	*
.	.	4B-\	.	.	.	4b-\	.
*	*	*	*	*	*	*Xcol	*
.	.	4A\	.	.	.	1cc	.
.	.	4B-\	.	.	.	.	.
.	.	4c\	.	2A/	-mi-	.	.
.	.	4A\	.	.	.	.	.
=16-	=16-	=16-	=16-	=16-	=16-	=16-	=16-
0D	-ro	4B-\	.	2d\	-la-	2.f/	ti
.	.	4A\	.	.	.	.	.
.	.	1d\	.	2f\	-bo	.	.
.	.	.	.	.	.	4g/	.
*	*	*	*	*	*	*custos:a	*
*	*	*	*	*	*	*xywh-#636:1041,1723,3416,706	*
!	!	!	!	!	!	!LO:LB:g=original	!
.	.	.	.	1d	e-	0.a	.
.	.	4c\	.	.	.	.	.
.	.	4B-\	.	.	.	.	.
=17-	=17-	=17-	=17-	=17-	=17-	=17-	=17-
0F	ſa-	2A/	.	2.c/	.	.	.
.	.	1c\	Si-	.	.	.	.
.	.	.	.	4B-/	.	.	.
.	.	.	.	4A/	.	.	.
.	.	.	.	4B-/	.	.	.
.	.	2A/	-mi-	2c/	-um	.	.
=18-	=18-	=18-	=18-	=18-	=18-	=18-	=18-
0F	-pi-	2d\	-la-	1A	vi-	2r	.
!	!	!	!	!	!	!	!LO:SIC:s=si-
.	.	2c\	-bo	.	.	1cc\	Si-
*	*	*custos:A	*	*	*	*	*
*	*	*xywh-#332:993,1644,3450,768	*	*	*	*	*
!	!	!LO:LB:g=original	!	!	!	!	!
.	.	4A/	e-	1c	-ro	.	.
.	.	4B-\	.	.	.	.	.
.	.	4c\	.	.	.	2a\	-mi-
.	.	4A/	.	.	.	.	.
=19-	=19-	=19-	=19-	=19-	=19-	=19-	=19-
0BB-	-en-	4B-\	.	2r	.	2dd\	-la-
.	.	4c\	.	.	.	.	.
.	.	2.d\	.	1f\	ſa-	2b-\	-bo
.	.	.	.	.	.	1dd	e-
.	.	4c\	.	.	.	.	.
.	.	2B-\	.	1f\	-pi-	.	.
*custos:F	*	*	*	*	*	*	*
!LO:LB:g=original	!	!	!	!	!	!	!
=20-	=20-	=20-	=20-	=20-	=20-	=20-	=20-
*xywh-#180:1012,1218,3465,730	*	*	*	*	*	*	*
0F	ti	2A/	-um	.	.	1cc	-um
!	!	!	!LO:SIC:s=si-	!	!	!	!
.	.	1c\	Si-	2.a\	-en-	.	.
.	.	.	.	.	.	1cc	vi-
.	.	.	.	4g\	.	.	.
.	.	2A/	-mi-	2.f\	.	.	.
=21-	=21-	=21-	=21-	=21-	=21-	=21-	=21-
00r	.	1.d	-la-	.	.	2a\	-ro
.	.	.	.	4e\	.	.	.
.	.	.	.	4d\	.	2b-\	ſa-
.	.	.	.	4e\	.	.	.
.	.	.	.	4f\	.	2a\	-pi-
.	.	.	.	4d\	.	.	.
.	.	2B-\	-bo	2.g\	.	2.b-\	-en-
=22-	=22-	=22-	=22-	=22-	=22-	=22-	=22-
.	.	1d	-e-	.	.	.	.
.	.	.	.	4f\	.	4a\	.
.	.	.	.	2.f\	.	4a\	.
.	.	.	.	.	.	8g/	.
.	.	.	.	.	.	8f/	.
.	.	1c	-um	.	.	1g	.
.	.	.	.	8e\	.	.	.
.	.	.	.	8d\	.	.	.
.	.	.	.	2e\	.	.	.
*	*	*	*	*custos:f	*	*	*
!	!	!	!	!LO:LB:g=original	!	!	!
=23-	=23-	=23-	=23-	=23-	=23-	=23-	=23-
*	*	*	*	*xywh-#484:1169,2123,3440,869	*	*	*
!	!LO:SIC:s=si-	!	!	!	!	!	!
0F	Si-	2r	.	2.f\	ti	1a	-ti
.	.	1c\	vi-	.	.	.	.
.	.	.	.	8e\	.	.	.
.	.	.	.	8d\	.	.	.
.	.	.	.	1c	.	2r	.
.	.	2A/	-ro	.	.	1a\	ſa-
=24-	=24-	=24-	=24-	=24-	=24-	=24-	=24-
0D	-mi-	1d	ſa-	2r	.	.	.
.	.	.	.	2.f\	ſa-	2a\	-pi-
.	.	2d\	-pi-	.	.	1a	-en-
.	.	.	.	4e\	.	.	.
.	.	2.f\	-en-	4d\	.	.	.
.	.	.	.	4c/	.	.	.
=25-	=25-	=25-	=25-	=25-	=25-	=25-	=25-
!	!	!	!	!LO:N:acc=#	!	!	!
0G	-la-	.	.	2Bn/	.	0g	-ti
.	.	4e\	.	.	.	.	.
.	.	4e\	.	1c\	-pi-	.	.
.	.	8d\	.	.	.	.	.
.	.	8c\	.	.	.	.	.
*	*	*custos:d	*	*	*	*	*
*	*	*xywh-#332:1023,2213,3434,783	*	*	*	*	*
!	!	!LO:LB:g=original	!	!	!	!	!
.	.	2.d\	.	.	.	.	.
!	!	!	!	!LO:N:acc=#	!	!	!
.	.	.	.	2Bn/	-en-	.	.
.	.	4e\	.	.	.	.	.
=26-	=26-	=26-	=26-	=26-	=26-	=26-	=26-
0F	-bo	2.f\	.	4c/	-ti	2r	.
!	!	!	!	!LO:SIC:s=4B-i	!	!	!
.	.	.	.	4B-y/	.	.	.
!	!	!	!	!	!	!	!LO:SIC:s=si-
.	.	.	.	4A/	.	2cc\	Si-
.	.	8e\	.	4G/	.	.	.
.	.	8d\	.	.	.	.	.
.	.	4c\	.	1A	.	2a\	-mi-
.	.	4F/	.	.	.	.	.
.	.	1f\	.	.	.	1dd\	-la-
=27-	=27-	=27-	=27-	=27-	=27-	=27-	=27-
0A	e-	.	.	2r	.	.	.
*	*	*	*	*	*	*custos:cc	*
*	*	*	*	*	*	*xywh-#636:1041,2243,3423,745	*
!	!	!	!	!	!LO:SIC:s=si-	!LO:LB:g=original	!
.	.	4e\	.	1c\	Si-	4cc\	.
.	.	4d\	.	.	.	4b-\	.
.	.	2c\	.	.	.	4a\	.
.	.	.	.	.	.	4b-\	.
.	.	2F/	-ti	2A/	-mi-	4cc\	.
.	.	.	.	.	.	4a\	.
=28-	=28-	=28-	=28-	=28-	=28-	=28-	=28-
0G	-um	1r	.	2d\	la-	4b-\	.
.	.	.	.	.	.	4cc\	.
.	.	.	.	2B-/	-bo	4dd\	.
.	.	.	.	.	.	4cc\	.
!	!	!	!LO:SIC:s=si-	!	!	!	!
.	.	0G	Si-	1d	e-	4b-\	.
.	.	.	.	.	.	4a\	.
.	.	.	.	.	.	4g/	.
.	.	.	.	.	.	4f/	.
=29-	=29-	=29-	=29-	=29-	=29-	=29-	=29-
0C	vi-	.	.	1c	-um	2e/	.
.	.	.	.	.	.	2e/	-bo
.	.	1E	-mi-	2r	.	1g	e-
.	.	.	.	1e\	vi-	.	.
=30-	=30-	=30-	=30-	=30-	=30-	=30-	=30-
0AA	-ro	2A/	-la-	.	.	2c/	-um
.	.	2c\	-bo	2A/	-ro	1e/	vi-
.	.	1A	e-	1c	ſa-	.	.
.	.	.	.	.	.	2f/	-ro
*	*	*	*	*custos:c	*	*	*
!	!	!	!	!LO:LB:g=original	!	!	!
=31-	=31-	=31-	=31-	=31-	=31-	=31-	=31-
*	*	*	*	*xywh-#484:1193,2664,3417,846	*	*	*
0C	ſa-	2G/	-um	1c	-pi-	2.e/	ſa-
.	.	1G/	vi-	.	.	.	.
.	.	.	.	.	.	4d/	.
.	.	.	.	2.c/	-en-	4e/	.
.	.	.	.	.	.	4f/	.
.	.	2E/	-ro	.	.	1g/	.
.	.	.	.	4d\	.	.	.
=32-	=32-	=32-	=32-	=32-	=32-	=32-	=32-
0C	-pi-	1G	ſa-	4e\	.	.	.
.	.	.	.	4f\	.	.	.
.	.	.	.	4g\	.	2e/	-pi-
.	.	.	.	4f\	.	.	.
.	.	2G/	-pi-	2.e\	.	2.cc\	-en-
.	.	2.c\	-en-	.	.	.	.
.	.	.	.	4d\	.	4b-\	.
=33-	=33-	=33-	=33-	=33-	=33-	=33-	=33-
0FF	-en-	.	.	0c	.	4a\	.
.	.	4B-\	.	.	.	4g/	.
.	.	4A/	.	.	.	4f/	.
.	.	4G/	.	.	.	4e/	.
*	*	*custos:A	*	*	*	*	*
*	*	*xywh-#332:1008,2736,3465,806	*	*	*	*	*
!	!	!LO:LB:g=original	!	!	!	!	!
.	.	1A	.	.	.	1f	.
*	*	*	*	*	*	*custos:e	*
!	!	!	!	!	!	!LO:LB:g=original	!
=34-	=34-	=34-	=34-	=34-	=34-	=34-	=34-
*	*	*	*	*	*	*xywh-#636:994,2732,3478,846	*
00C\	-ti	0.G	-ti	1c	ti	1e	-ti
.	.	.	.	2r	.	2r	.
.	.	.	.	1e\	qui	1g/	qui
=35-	=35-	=35-	=35-	=35-	=35-	=35-	=35-
.	.	.	.	.	.	.	.
!	!	!	!	!	!LO:SIC:s=ae-	!	!LO:SIC:s=ae-
.	.	.	.	2e\	ę-	2g/	ę-
.	.	1r	.	2e\	-di-	2g/	-di-
.	.	.	.	2e\	-fi-	2g/	-fi-
=36-	=36-	=36-	=36-	=36-	=36-	=36-	=36-
00r	.	1r	.	1f	-ca-	1a	-ca-
!	!	!	!	!	!LO:SIC:s=-vit	!	!LO:SIC:s=-vit
.	.	1.c	qui	2e\	-uit	1g	-uit
.	.	.	.	4c/	do-	.	.
.	.	.	.	4d\	.	.	.
=37-	=37-	=37-	=37-	=37-	=37-	=37-	=37-
.	.	.	.	4e\	.	4c/	do-
.	.	.	.	4f\	.	4d/	.
!	!	!	!LO:SIC:s=ae-	!	!	!	!
.	.	2c\	ę-	2g\	.	4e/	.
.	.	.	.	.	.	4f/	.
!	!	!	!	!	!LO:SIC:s=-mum	!	!
.	.	2c\	-di-	1e	-mu(m)	4g/	.
.	.	.	.	.	.	4e/	.
.	.	2c\	-fi-	.	.	1a\	.
=38-	=38-	=38-	=38-	=38-	=38-	=38-	=38-
0r	.	1d	-ca-	1f	ſu-	.	.
.	.	.	.	.	.	4g/	.
.	.	.	.	.	.	4f/	.
!	!	!	!LO:SIC:s=-vit	!	!	!	!
.	.	2c\	-uit	0e	-am	2g/	.
!	!	!	!	!	!	!	!LO:SIC:s=-mum
.	.	4C/	do-	.	.	2g/	-mu(m)
.	.	4D/	.	.	.	.	.
=39-	=39-	=39-	=39-	=39-	=39-	=39-	=39-
0C	qui	4E/	.	.	.	1g	ſu-
.	.	4F/	.	.	.	.	.
.	.	4G/	.	.	.	.	.
.	.	4E/	.	.	.	.	.
*	*	*	*	*custos:c	*	*	*
*	*	*	*	*xywh-#484:1177,3236,3401,862	*	*	*
!	!	!	!	!LO:LB:g=original	!	!	!
.	.	2A/	.	2r	.	1e	-am
!	!	!	!LO:SIC:s=-mum	!	!	!	!
.	.	2G/	-mu(m)	2.c/	ſu-	.	.
=40-	=40-	=40-	=40-	=40-	=40-	=40-	=40-
0C	ae-	2c\	ſu-	.	.	2r	.
.	.	.	.	4A/	-pra	.	.
.	.	2C/	-am	2G/	pe-	2.cc\	ſu-
.	.	2r	.	4c/	-tram	.	.
.	.	.	.	4d\	.	4a\	-pra
.	.	2.c\	ſu-	4e\	.	2g/	pe-
.	.	.	.	4f\	.	.	.
=41-	=41-	=41-	=41-	=41-	=41-	=41-	=41-
0C	-di-	.	.	1e	.	2c/	-tram
.	.	4A/	-pra	.	.	.	.
*	*	*	*	*	*	*custos:cc	*ij
*	*	*	*	*	*	*xywh-#636:979,3330,3486,745	*
!	!	!	!	!	!	!LO:LB:g=original	!
.	.	2G/	pe-	.	.	2.cc\	ſu-
!	!	!	!LO:SIC:s=-tram	!	!	!	!
.	.	2C/	-tra(m)	2r	.	.	.
.	.	.	.	.	.	4a\	-pra
.	.	1c\	qui	1e\	qui	2g/	pe-
=42-	=42-	=42-	=42-	=42-	=42-	=42-	=42-
0C	fi-	.	.	.	.	2c/	-tram
!	!	!	!LO:SIC:s=ae-	!	!	!	!
.	.	2c\	ę-	2e\	ae-	2.cc\	ſu-
*	*	*custos:c	*	*	*	*	*
*	*	*xywh-#332:1016,3335,3496,753	*	*	*	*	*
!	!	!LO:LB:g=original	!	!	!	!	!
.	.	2c\	-di-	2e\	-di-	.	.
.	.	.	.	.	.	4a\	-pra
.	.	2c\	-fi-	2e\	-fi-	2g/	pe-
*custos:D	*	*	*	*	*	*	*
!LO:LB:g=original	!	!	!	!	!	!	!
=43-	=43-	=43-	=43-	=43-	=43-	=43-	=43-
*xywh-#180:1091,1753,3387,723	*	*	*	*	*	*	*
0D	-ca-	4F/	-ca-	0f	-ca-	4b-\	.
.	.	4E/	.	.	.	8a\	.
.	.	.	.	.	.	8g\	.
.	.	4D/	.	.	.	4f/	.
.	.	4E/	.	.	.	4g/	.
.	.	4F/	.	.	.	1a	-tram
*	*	*	*	*	*	*	*Xij
.	.	4G/	.	.	.	.	.
.	.	4A/	.	.	.	.	.
.	.	4B-\	.	.	.	.	.
=44-	=44-	=44-	=44-	=44-	=44-	=44-	=44-
!	!LO:SIC:s=-vit	!	!	!	!LO:SIC:s=-vit	!	!
0C	-uit	1c	.	2e\	-uit	2r	.
.	.	.	.	4c/	do-	1cc\	qui
.	.	.	.	4d\	.	.	.
!	!	!	!LO:SIC:s=-vit	!	!	!	!
.	.	2G/	-uit	4e\	.	.	.
.	.	.	.	4f\	.	.	.
!	!	!	!	!	!	!	!LO:SIC:s=ae-
.	.	1c\	do-	2g\	.	2cc\	ę-
=45-	=45-	=45-	=45-	=45-	=45-	=45-	=45-
!	!	!	!	!	!LO:SIC:s=-mum	!	!
0F	do-	.	.	1a	-mu(m)	2cc\	-di-
.	.	1A\	-mum	.	.	2cc\	-fi-
.	.	.	.	0.f	ſu-	1dd	-ca-
.	.	2.B-\	ſu-	.	.	.	.
=46-	=46-	=46-	=46-	=46-	=46-	=46-	=46-
!	!	!	!	!	!	!	!LO:SIC:s=-vit
0F	-mum	.	.	.	.	2cc\	-uit
.	.	8A/	.	.	.	.	.
.	.	8G/	.	.	.	.	.
.	.	4A/	.	.	.	4f/	do-
.	.	4B-\	.	.	.	4g/	.
.	.	2c\	.	.	.	4a\	.
.	.	.	.	.	.	4b-\	.
.	.	2A/	-am	.	.	2cc\	.
=47-	=47-	=47-	=47-	=47-	=47-	=47-	=47-
0G	ſu-	2r	.	2.d\	-am	2b-\	-mum
*	*	*	*	*	*	*custos:g	*
*	*	*	*	*	*	*xywh-#636:979,3874,3486,768	*
!	!	!	!	!	!	!LO:LB:g=original	!
.	.	2.B-\	ſu-	.	.	2.g/	ſu-
.	.	.	.	4c/	.	.	.
.	.	.	.	1B-	.	.	.
.	.	4c\	.	.	.	4a\	.
.	.	4d\	.	.	.	4b-\	.
.	.	4e\	.	.	.	4g/	.
*	*	*	*	*custos:f	*	*	*
!	!	!	!	!LO:LB:g=original	!	!	!
=48-	=48-	=48-	=48-	=48-	=48-	=48-	=48-
*	*	*	*	*xywh-#484:1177,3793,3393,807	*	*	*
00F	-am	2f\	.	2r	.	0a	.
.	.	2c\	-am	2.f\	ſu-	.	.
*	*	*custos:f	*	*	*	*	*
*	*	*xywh-#332:985,3827,3496,791	*	*	*	*	*
!	!	!LO:LB:g=original	!	!	!	!	!
.	.	2r	.	.	.	.	.
.	.	.	.	4d\	-pra	.	.
.	.	2.f\	ſu-	2c/	pe-	.	.
=49-	=49-	=49-	=49-	=49-	=49-	=49-	=49-
.	.	.	.	2.F/	-tram	1a	-am
.	.	4d\	-pra	.	.	.	.
.	.	1c\	pe-	.	.	.	.
.	.	.	.	4G/	.	.	.
.	.	.	.	1A	.	2r	.
.	.	2F/	-tram	.	.	2.cc\	ſu-
=50-	=50-	=50-	=50-	=50-	=50-	=50-	=50-
00r	.	1.c	qui	2r	.	.	.
.	.	.	.	.	.	4a\	-pra
.	.	.	.	1e\	qui	2g/	pe-
.	.	.	.	.	.	2c/	-tram
*	*	*	*	*	*	*	*ij
!	!	!	!LO:SIC:s=ae-	!	!	!	!
.	.	2c\	ę-	2e\	ae-	2.cc\	ſu-
=51-	=51-	=51-	=51-	=51-	=51-	=51-	=51-
.	.	2c\	-di-	2e\	-di-	.	.
.	.	.	.	.	.	4a\	-pra
.	.	2c\	-fi-	2e\	-fi-	2g/	pe-
.	.	1d	-ca-	1f	-ca-	4f/	-tram
*	*	*	*	*	*	*	*Xij
.	.	.	.	.	.	4g/	.
.	.	.	.	.	.	4a\	.
.	.	.	.	.	.	4b-\	.
=52-	=52-	=52-	=52-	=52-	=52-	=52-	=52-
!	!	!	!LO:SIC:s=-vit	!	!LO:SIC:s=-vit	!	!
00r	.	2c\	-uit	2e\	-uit	1cc	.
.	.	4F/	do-	4A/	do-	.	.
.	.	4G/	.	4B-/	.	.	.
.	.	4A/	.	4c/	.	2r	.
.	.	4B-\	.	4d\	.	.	.
.	.	1c\	.	4e\	.	1g/	qui
.	.	.	.	4c/	.	.	.
=53-	=53-	=53-	=53-	=53-	=53-	=53-	=53-
.	.	.	.	1d	.	.	.
!	!	!LO:N:acc=#	!LO:SIC:s=-mum	!	!	!	!
.	.	2Bn\	-mu(m)	.	.	2g/	ae-
.	.	1c	ſu-	1e	-mum	2g/	-di-
.	.	.	.	.	.	2g/	-fi-
=54-	=54-	=54-	=54-	=54-	=54-	=54-	=54-
0r	.	1F	-am	1f	ſu-	1a	-ca-
*	*	*	*	*	*	*custos:g	*
*	*	*	*	*	*	*xywh-#636:987,4464,3462,760	*
!	!	!	!	!	!	!LO:LB:g=original	!LO:SIC:s=-vit
.	.	2r	.	1e	-am	2g/	-uit
.	.	2.c\	ſu-	.	.	4e/	do-
.	.	.	.	.	.	4d/	.
*	*	*	*	*custos:c	*	*	*
!	!	!	!	!LO:LB:g=original	!	!	!
=55-	=55-	=55-	=55-	=55-	=55-	=55-	=55-
*	*	*	*	*xywh-#484:1200,4349,3354,854	*	*	*
00C\	ſu-	.	.	2r	.	4e/	.
.	.	4A/	-pra	.	.	4f/	.
.	.	2G/	pe-	2.c/	ſu-	2g/	.
!	!	!	!	!	!	!	!LO:SIC:s=-mum
.	.	2C/	-tram	.	.	1e	-mu(m)
.	.	.	.	4A/	-pra	.	.
*	*	*	*ij	*	*	*	*
.	.	2.c\	ſu-	2G/	pe-	.	.
=56-	=56-	=56-	=56-	=56-	=56-	=56-	=56-
.	.	.	.	2c/	-tram	0e	ſu-
.	.	4A/	-pra	.	.	.	.
*	*	*custos:G	*	*	*ij	*	*
*	*	*xywh-#332:1031,4380,3411,875	*	*	*	*	*
!	!	!LO:LB:g=original	!	!	!	!	!
.	.	2G/	pe-	2.c/	ſu-	.	.
.	.	2C/	-tram	.	.	.	.
*	*	*	*Xij	*	*	*	*
.	.	.	.	4A/	-pra	.	.
.	.	2.c\	do-	2G/	pe-	.	.
=57-	=57-	=57-	=57-	=57-	=57-	=57-	=57-
00AA\	-pra	.	.	2.A/	-tram	2e/	-am
.	.	4B-y\	.	.	.	.	.
.	.	4A\	.	.	.	2.cc\	do-
.	.	4G/	.	4B-/	.	.	.
.	.	2F/	.	0.c	.	.	.
.	.	.	.	.	.	4b-\	.
!	!	!	!LO:SIC:s=-mum	!	!	!	!
.	.	2E/	-mu(m)	.	.	4a\	.
.	.	.	.	.	.	4g/	.
=58-	=58-	=58-	=58-	=58-	=58-	=58-	=58-
.	.	2.A/	ſu-	.	.	2f/	.
!	!	!	!	!	!	!	!LO:SIC:s=-mum
.	.	.	.	.	.	2e/	-mu(m)
.	.	8G/	.	.	.	.	.
.	.	8F/	.	.	.	.	.
.	.	4E/	.	.	.	1a	ſu-
.	.	4D/	.	.	.	.	.
.	.	4E/	.	.	.	.	.
.	.	4F/	.	.	.	.	.
=59-	=59-	=59-	=59-	=59-	=59-	=59-	=59-
00GG	pe-	1G	.	2r	.	1d	-am
.	.	.	.	1g\	ſu-	.	.
.	.	2D/	-am	.	.	2.g/	ſu-
.	.	1G/	ſu-	2e\	-pra	.	.
.	.	.	.	.	.	4a\	.
=60-	=60-	=60-	=60-	=60-	=60-	=60-	=60-
.	.	.	.	2d\	pe-	2b-\	.
.	.	2E/	-pra	1c\	.	2g/	-pra
.	.	1D	pe-	.	.	1g	pe-
!	!	!	!	!LO:N:acc=#	!	!	!
.	.	.	.	2Bn/	.	.	.
=61-	=61-	=61-	=61-	=61-	=61-	=61-	=61-
!	!	!	!	!	!LO:SIC:s=-tram.	!	!
0Cl	-tram.	0Cl	-tram.	0cl	-tram	0el	-tram.
*	*	*	*	*	*Xij	*	*
==	==	==	==	==	==	==	==
*-	*-	*-	*-	*-	*-	*-	*-
!!!system-decoration: [*]
!!LO:MO:ori
!!!RDF**kern: l = terminal long
!!LO:MO:mod
!! !!!RDF**kern: i = editorial accidental
!!LO:MO:end
!!!filter-modern: shed -e "s/^custos:/Xcustos:/I" | shed -e "s/LO:N:/LO:n:$1/L" | shed -e "s/TX(.*):t=P:/tx$1:t=P:/LG" | sic -sq | modori -m | autostem -r | tie -s | humtr -p | shed -e "s/-//B" | autobeam
!!!ENC: Marta Opryszak
!!!END: 2022-07-06
!!!EED: Andrzej Kubiczek
!!!EEV: 2025-06-27
!!!ENC-modern: Andrzej Kubiczek
!!!END-modern: 2025-02-27
!!!ENC-iiif: Lidia Bialucha
!!!END-iiif: 2022-09-13
